X: 1
T: Vals efter Johan August Nilsson
T: Vals fr. Munkedal
O: \"Ovg 53
R: waltz
Z: 2021 John Chambers <jc:trillian.mit.edu>
F: https://app.box.com/s/u6iiren0igvsukrhdducy7orq72jayq8/file/774012606213 (Bruce Sagan's scanfolk archive)
F: http://www.stefanlinden.se/L/vals%20fr%20Munkedal%20Bh%202st%20V1.pdf
M: 3/4
L: 1/8
K: A	% and Am
% - - - - - - - - - -
V: 1 staves=2
zE2 |\
"Am"=c2 BA GA | B2 =c2 [e2B2] | "A"e2 ^de fe | ce a2 c2 |\
"Am"=cd cB A2- | A=c BA GA | "E7"Be ed BG | "Am"A3 :| "A"A3 |]
 "(E7)"e fg |:\
"A"{g}a2 ac df | fe e^d eg | "E7"gb be ed | "A"c2 c>B c>d |\
"A"(3efg a2 a2- | "D"A>d f2 f2 | "E7"dc BA GB |1 BA ce fg :|2 "A"A3 |]
% - - - - - - - - - -
V: 2 clef=treble
zC2 |\
"Am"E=C EC B,C | E2 EA =CA | "A"E2 A2 A2 | AE C2 C2 |\
"Am"A2 ED E2 | =C2 GE C2 | "E7"D2 BG D2 |1 "Am"=C3 :|2 "A"^C3 |]
|: "(E7)"G AB |\
"A"c2 AE AC | A2 GF GC | "E7"B2 G2 B,2 | "A"E2 A,>C E>A |\
"A"(3A,CE c2 E2 | "D"C2 DF DA | "E7"B,2 DE B,E |1 GF E2 AB :|2 "A"C3 |]
% - - - - - - - - - -
